X:54
T:Sommervalsen
C:Ale M\"oller
R:Waltz
M:3/4
L:1/4
Q:1/4=120
K:G
dc|"G"B>AG|"D"A2F|"Em"G3|"C"E>FE|"G"DGA|
"C"c2B|"Am"(3B/c/B/ AG|"D7"Adc|"G"B>AG|"D"A2F|
"Em"G3|"C"E>FE|"G"DEG|"D7"G2F|"G"G3-|G:|
|:FG|"D"A>AA|AFD|"C"c3|"G"B>A G|"Am"EA/B/c|
"Bm"d>c B/A/|"C"GFG|"D"A BA|"Em"G>AG|"D"F>GF|
"C"E>FE|"G"DGA|"Em"B>AG|"D7"A/d/-dF|"C"G3-|"G"G:|
